X:24
T:The Willow Tree, or Rue and Thyme
Z:Jack Campin, http://www.campin.me.uk/
S:Northumbrian Minstrelsy
M:C
L:1/8
K:A Minor
(c`B)|A2 (G`E) D2 (EG)| G4       z2 \
 E2  |c2  c2   d2  e2 | A4       z2
(c`d)|e2  c e  d2 (AB)|(cB) (AG) E2 \
 c B |A2 (A`c) D2 (EG)| A4       z2|]

